!!!COM: Gaspar van Weerbeke
!!!CDT: ~1450-~1517
!!!OPR: Missa N'as tu pas
!!!OTL: Agnus
!!!OMV: 5
!!!SCT: Gas0203e
!!!SCA: Gas0203e
!!!voices: 4
**kern	**text	**kern	**text	**kern	**text	**kern	**text
*part4	*part4	*part3	*part3	*part2	*part2	*part1	*part1
*staff4	*staff4	*staff3	*staff3	*staff2	*staff2	*staff1	*staff1
*I"Bassus	*	*I"Tenor	*	*I"Altus	*	*I"Superius	*
*I'B	*	*I'T	*	*I'A	*	*I'S	*
*>[A,B,C]	*>[A,B,C]	*>[A,B,C]	*>[A,B,C]	*>[A,B,C]	*>[A,B,C]	*>[A,B,C]	*>[A,B,C]
*>Agnus1[A]	*>Agnus1[A]	*>Agnus1[A]	*>Agnus1[A]	*>Agnus1[A]	*>Agnus1[A]	*>Agnus1[A]	*>Agnus1[A]
*>Agnus2[B]	*>Agnus2[B]	*>Agnus2[B]	*>Agnus2[B]	*>Agnus2[B]	*>Agnus2[B]	*>Agnus2[B]	*>Agnus2[B]
*>Agnus3[C]	*>Agnus3[C]	*>Agnus3[C]	*>Agnus3[C]	*>Agnus3[C]	*>Agnus3[C]	*>Agnus3[C]	*>Agnus3[C]
*>A	*>A	*>A	*>A	*>A	*>A	*>A	*>A
*clefF4	*	*clefGv2	*	*clefGv2	*	*clefG2	*
*k[b-]	*	*k[b-]	*	*k[b-]	*	*k[b-]	*
*M2/2	*	*M2/2	*	*M2/2	*	*M2/2	*
*met(C|)	*	*met(C|)	*	*met(C|)	*	*met(C|)	*
!!section: Agnus I
=1	=1	=1	=1	=1	=1	=1	=1
2F	A-	1r	.	2F	A-	1r	.
4.F	-gnus	.	.	4.A	-gnus	.	.
8E	.	.	.	8B-y	.	.	.
=2	=2	=2	=2	=2	=2	=2	=2
4C	.	1r	.	4c	De-	1r	.
2D	De-	.	.	4F	.	.	.
.	.	.	.	4.A	.	.	.
8CL	.	.	.	.	.	.	.
8BB-yJ	.	.	.	8B-y	.	.	.
=3	=3	=3	=3	=3	=3	=3	=3
4.AA	.	1r	.	8cL	.	1r	.
.	.	.	.	8B-y	.	.	.
.	.	.	.	8A	.	.	.
8BB-y	.	.	.	8GJ	.	.	.
8CL	.	.	.	4A	-i,	.	.
8BB-y	.	.	.	.	.	.	.
*	*	*	*	*	*edit	*	*
8AA	.	.	.	[4c	A-	.	.
8GGJ	.	.	.	.	.	.	.
=4	=4	=4	=4	=4	=4	=4	=4
4FF	-i,	1r	.	4c]	.	1r	.
*	*edit	*	*	*	*	*	*
2F	De-	.	.	8B-yL	-gnus	.	.
.	.	.	.	8AJ	.	.	.
.	.	.	.	2G	De-	.	.
4E	.	.	.	.	.	.	.
!!LO:LB:g=original
=5	=5	=5	=5	=5	=5	=5	=5
[1F	-i,	2c	A-	2F	-i,	2f	A-
.	.	8cL	-gnus	4.f	A-	4.a	-gnus
.	.	8B-y	.	.	.	.	.
.	.	8A	.	.	.	.	.
.	.	8GJ	.	8e	.	8b-y	.
=6	=6	=6	=6	=6	=6	=6	=6
1F_	.	4A	.	4c	-gnus	4cc	De-
.	.	2D	De-	2d	De-	4f	.
.	.	.	.	.	.	4.a	.
.	.	[4F	.	8cL	.	.	.
.	.	.	.	8B-yJ	.	8b-y	.
=7	=7	=7	=7	=7	=7	=7	=7
1F]	.	8FL]	.	4.A	.	8ccL	.
.	.	8GJ	.	.	.	8b-y	.
.	.	4A	.	.	.	8a	.
.	.	.	.	8B-y	.	8gJ	.
.	.	2F	-i,	8cL	.	4a	-i,
.	.	.	.	8B-y	.	.	.
*	*	*	*	*	*	*	*edit
.	.	.	.	8A	.	[4cc	A-
.	.	.	.	8GJ	.	.	.
=8	=8	=8	=8	=8	=8	=8	=8
*lig	*	*	*	*	*	*	*
*	*	*	*edit	*	*	*	*
2F	qui	4A	qui	4F	-i,	4cc]	.
.	.	2c	tol-	2f	De-	8b-yL	-gnus
.	.	.	.	.	.	8aJ	.
2G	.	.	.	.	.	2b-y	De-
.	.	4B-y	.	4e	.	.	.
*Xlig	*	*	*	*	*	*	*
=9	=9	=9	=9	=9	=9	=9	=9
2F	tol-	2c	.	2f	-i,	2a	-i,
[2D	-lis	[2d	-lis	4r	.	4b-y	qui
.	.	.	.	[4F	qui	[4a	tol-
!!LO:LB:g=original
=10	=10	=10	=10	=10	=10	=10	=10
2D]	.	2d]	.	8FL]	.	4a]	.
.	.	.	.	8G	.	.	.
.	.	.	.	8A	.	8gL	.
.	.	.	.	8B-yJ	.	8fJ	.
2C	pec-	4G	pec-	8cL	.	4e	.
.	.	.	.	8d	.	.	.
.	.	[4c	-ca-	8e	.	4c	-lis
.	.	.	.	8fJ	.	.	.
=11	=11	=11	=11	=11	=11	=11	=11
8CL	-ca-	4c]	.	4.e	tol-	1r	.
8D	.	.	.	.	.	.	.
8E	.	8B-yL	.	.	.	.	.
8FJ	.	8AJ	.	8d	.	.	.
4G	.	4G	.	8B-yL	.	.	.
.	.	.	.	8AJ	.	.	.
4F	.	4A	.	[4d	.	.	.
=12	=12	=12	=12	=12	=12	=12	=12
4G	.	4B-y	-ta	4d]	.	1r	.
4E	-ta	2G	mun-	2c	.	.	.
2D	mun-	.	.	.	.	.	.
.	.	4F	.	4Bni	.	.	.
=13	=13	=13	=13	=13	=13	=13	=13
*	*	*	*	*	*	*	*Xedit
2C	-di,	2G	-di,	2.c	-lis	4.e	pec-
.	.	.	.	.	.	8f	.
4r	.	4E	mun-	.	.	4g	.
[4FF	pec-	[4F	.	4c	pec-	[4a	-ca-
=14	=14	=14	=14	=14	=14	=14	=14
8FFL]	.	4F]	.	4A	-ca-	4a]	.
8GG	.	.	.	.	.	.	.
8AA	.	8EL	.	2c	-ta	8gL	.
8BB-yJ	.	8DJ	.	.	.	8fJ	.
2C	.	4C	.	.	.	4e	.
.	.	[4G	-di:	8B-yL	.	4c	-ta
.	.	.	.	8AJ	.	.	.
!!LO:LB:g=original
=15	=15	=15	=15	=15	=15	=15	=15
*	*	*	*	*	*	*	*edit
4GG	-ca-	4G]	.	4B-y	mun-	4d	mun-
4AA	-ta	2c	mi-	2A	.	4c	.
2BB-y	mun-	.	.	.	.	2d	-di:
.	.	4B-y	-se-	4G	-di:	.	.
=16	=16	=16	=16	=16	=16	=16	=16
4FF	-di:	2c	-re-	4.A	mi-	4r	.
*	*	*	*	*	*	*	*Xedit
4F	mi-	.	.	.	.	4a	mi-
.	.	.	.	8B-y	-se-	.	.
4F	-se-	2A	-re	4c	-re-	4a	-se-
4F	-re-	.	.	4d	-re	4a	-re-
=17	=17	=17	=17	=17	=17	=17	=17
4E	-re	4r	.	4e	no-	4.g	-re
4.G	no-	2B-y	no-	2d	.	.	.
.	.	.	.	.	.	8a	.
.	.	.	.	.	.	8b-yL	.
8F	.	.	.	.	.	8ccJ	.
4D	.	4A	.	[4f	.	[4dd	.
=18	=18	=18	=18	=18	=18	=18	=18
4BB-y	.	4B-y	.	4f]	.	4dd]	.
4C	.	4.G	.	4e	.	4cc	.
2G	.	.	.	4.d	.	4.b-y	no-
.	.	8A	.	.	.	.	.
.	.	4B-y	.	.	.	.	.
.	.	.	.	8e	.	8g	.
=19	=19	=19	=19	=19	=19	=19	=19
1FFl 1Fl	-bis.	1cl	-bis.	1fl	-bis.	1al	-bis.
!!LO:PB:g=original
=20||	=20||	=20||	=20||	=20||	=20||	=20||	=20||
*>B	*>B	*>B	*>B	*>B	*>B	*>B	*>B
*M2/2	*	*M2/2	*	*M2/2	*	*M2/2	*
*met(C|)	*	*met(C|)	*	*met(C|)	*	*met(C|)	*
!!section: Agnus II
*	*Xedit	*	*	*	*	*	*
2.C	A-	1r	.	1r	.	1r	.
4C	-gnus	.	.	.	.	.	.
=21	=21	=21	=21	=21	=21	=21	=21
*	*	*	*Xedit	*	*	*	*
4.D	De-	2.F	A-	1r	.	1r	.
8C	.	.	.	.	.	.	.
4BB-y	.	.	.	.	.	.	.
4AA	.	4F	-gnus	.	.	.	.
=22	=22	=22	=22	=22	=22	=22	=22
2GG	-i,	4.G	De-	1r	.	1r	.
.	.	8F	.	.	.	.	.
4r	.	4E	.	.	.	.	.
*	*edit	*	*	*	*	*	*
4F	qui	4D	.	.	.	.	.
=23	=23	=23	=23	=23	=23	=23	=23
4.G	tol-	2C	-i,	1r	.	1r	.
8F	.	.	.	.	.	.	.
4E	.	4r	.	.	.	.	.
*	*	*	*edit	*	*	*	*
4D	-lis	4B-y	qui	.	.	.	.
=24	=24	=24	=24	=24	=24	=24	=24
4C	pec-	4.c	tol-	1r	.	1r	.
2F	-ca-	.	.	.	.	.	.
.	.	8B-y	.	.	.	.	.
.	.	4A	.	.	.	.	.
4E	-ta	4G	-lis	.	.	.	.
!!LO:LB:g=original
=25	=25	=25	=25	=25	=25	=25	=25
4D	mun-	4F	pec-	1r	.	1r	.
4BB-y	.	2B-y	-ca-	.	.	.	.
2C	.	.	.	.	.	.	.
.	.	4A	-ta	.	.	.	.
=26	=26	=26	=26	=26	=26	=26	=26
4BB-y	.	4G	mun-	1r	.	1r	.
4C	.	4E	.	.	.	.	.
4AA	.	4F	.	.	.	.	.
4BB-y	.	[4G	.	.	.	.	.
=27	=27	=27	=27	=27	=27	=27	=27
4C	.	4G]	.	1r	.	1r	.
4AA	.	2F	.	.	.	.	.
2GG	.	.	.	.	.	.	.
.	.	4E	.	.	.	.	.
=28	=28	=28	=28	=28	=28	=28	=28
*	*	*	*	*	*Xedit	*	*
2FF	-di,	2F	-di,	4.A	A-	2r	.
.	.	.	.	8B-y	.	.	.
2r	.	2r	.	8cL	.	4.a	A-
.	.	.	.	8dJ	.	.	.
.	.	.	.	4c	.	.	.
.	.	.	.	.	.	8b-y	.
=29	=29	=29	=29	=29	=29	=29	=29
1r	.	1r	.	4.A	-gnus	8ccL	.
.	.	.	.	.	.	8ddJ	.
.	.	.	.	.	.	4cc	.
.	.	.	.	8B-y	.	.	.
.	.	.	.	8cL	.	4.a	-gnus
.	.	.	.	8dJ	.	.	.
.	.	.	.	4c	.	.	.
.	.	.	.	.	.	8b-y	.
!!LO:LB:g=original
=30	=30	=30	=30	=30	=30	=30	=30
1r	.	1r	.	4.F	De-	8ccL	.
.	.	.	.	.	.	8ddJ	.
.	.	.	.	.	.	4cc	.
.	.	.	.	8G	.	.	.
.	.	.	.	4A	.	4.f	De-
.	.	.	.	4B-y	.	.	.
.	.	.	.	.	.	8g	.
=31	=31	=31	=31	=31	=31	=31	=31
1r	.	1r	.	4A	-i,	4a	.
*	*	*	*	*	*edit	*	*
.	.	.	.	4G	qui	4b-y	.
.	.	.	.	4.c	tol-	4a	-i,
*	*	*	*	*	*	*	*edit
.	.	.	.	.	.	4g	qui
.	.	.	.	8B-y	.	.	.
=32	=32	=32	=32	=32	=32	=32	=32
2r	.	1r	.	8AL	.	4.cc	tol-
.	.	.	.	8GJ	.	.	.
.	.	.	.	4F	-lis	.	.
.	.	.	.	.	.	8b-y	.
4.FF	A-	.	.	2r	.	8aL	.
.	.	.	.	.	.	8gJ	.
.	.	.	.	.	.	4f	-lis
8GG	.	.	.	.	.	.	.
=33	=33	=33	=33	=33	=33	=33	=33
4AA	.	4.F	A-	1r	.	1r	.
4BB-y	.	.	.	.	.	.	.
.	.	8G	.	.	.	.	.
4AA	.	4A	.	.	.	.	.
4GG	-gnus	4B-y	.	.	.	.	.
=34	=34	=34	=34	=34	=34	=34	=34
4.C	De-	4A	.	1r	.	1r	.
.	.	4G	-gnus	.	.	.	.
8BB-y	.	.	.	.	.	.	.
2AA	-i,	4.c	De-	.	.	.	.
.	.	8B-y	.	.	.	.	.
!!LO:LB:g=original
=35	=35	=35	=35	=35	=35	=35	=35
4D	qui	2A	-i,	1r	.	1r	.
8CL	.	.	.	.	.	.	.
8AAJ	.	.	.	.	.	.	.
4BB-y	.	4d	qui	.	.	.	.
8AAL	.	8cL	.	.	.	.	.
8FFJ	.	8AJ	.	.	.	.	.
=36	=36	=36	=36	=36	=36	=36	=36
4GG	tol-	4B-y	tol-	2r	.	2r	.
4AA	-lis:	4A	-lis:	.	.	.	.
*	*	*	*	*	*	*	*Xedit
2r	.	2r	.	4d	pec-	4b-y	pec-
.	.	.	.	8cL	.	8aL	.
.	.	.	.	8AJ	.	8fJ	.
=37	=37	=37	=37	=37	=37	=37	=37
1r	.	1r	.	4B-y	-ca-	4g	-ca-
.	.	.	.	4A	-ta	4a	-ta
*	*	*	*	*	*	*	*edit
.	.	.	.	4B-y	mun-	4dd	mun-
.	.	.	.	8AL	.	8ccL	.
.	.	.	.	8FJ	.	8aJ	.
=38	=38	=38	=38	=38	=38	=38	=38
1r	.	2r	.	4G	.	4b-y	.
.	.	.	.	4A	.	2a	.
.	.	2B-y	mi-	2d	.	.	.
.	.	.	.	.	.	4g	-di:
=39	=39	=39	=39	=39	=39	=39	=39
4.D	mi-	4.A	.	2d	-di:	4.a	mi-
8GG	-se-	8G	-se-	.	.	8b-y	-se-
4D	-re-	4A	-re-	4r	.	4a	-re-
4GG	-re,	4B-y	-re,	[4d	mi-	4g	-re,
!!LO:PB:g=original
=40	=40	=40	=40	=40	=40	=40	=40
4.D	mi-	4.A	mi-	4d]	.	4.a	mi-
.	.	.	.	8cL	-se-	.	.
8G	-se-	8G	-se-	8B-yJ	.	8b-y	-se-
4F	-re-	4A	-re-	2c	-re-re	4a	-re-
8EL	-re	4B-y	-re	.	.	8gL	-re
8DJ	.	.	.	.	.	8fJ	.
=41	=41	=41	=41	=41	=41	=41	=41
2C	no-	2c	no-	4r	-re	2e	no-
.	.	.	.	4c	no-	.	.
[2G	-bis,	[2B-y	-bis,	8dL	.	[2d	-bis,
.	.	.	.	8c	.	.	.
.	.	.	.	8B-y	.	.	.
.	.	.	.	8AJ	.	.	.
=42	=42	=42	=42	=42	=42	=42	=42
4G]	.	1B-]	.	2G	-bis,	4d]	.
*	*	*	*	*	*	*	*Xedit
2E-X	mi-	.	.	.	.	2g	mi-
.	.	.	.	2r	.	.	.
8DL	-se-	.	.	.	.	8fL	-se-
8CJ	.	.	.	.	.	8eJ	.
=43	=43	=43	=43	=43	=43	=43	=43
4.BB-y	-re-	[1B-y	mi-	4.f	mi-	4.d	-re-
8C	.	.	.	8e	.	8e	.
4D	-re	.	.	8dL	.	4f	.
.	.	.	.	8cJ	.	.	.
8GGL	no-	.	.	4B-y	-se-	4g	-re
8AAJ	.	.	.	.	.	.	.
=44	=44	=44	=44	=44	=44	=44	=44
*	*	*	*	*	*	*	*edit
8BB-yL	.	1B-_	.	4G	-re-	4d	no-
8CJ	.	.	.	.	.	.	.
4D	.	.	.	4F	.	4f	.
4GG	.	.	.	4G	.	4d	.
4D	-bis,	.	.	4D	-re,	4f	.
!!LO:LB:g=original
=45	=45	=45	=45	=45	=45	=45	=45
4.E-i	mi-	1B-]	.	2r	.	4g	-bis,
.	.	.	.	.	.	4.b-y	mi-
8D	.	.	.	.	.	.	.
8BB-yL	.	.	.	2d	mi-	.	.
8C	.	.	.	.	.	8aL	.
8D	.	.	.	.	.	8f	.
8E-iJ	.	.	.	.	.	8gJ	.
=46	=46	=46	=46	=46	=46	=46	=46
4.F	-se-	4.A	-se-	4c	-se-	4.a	-se-
.	.	.	.	4f	.	.	.
8E-i	.	8B-y	.	.	.	8g	.
8CL	.	4.c	-re-	4.e-X	-re-	8e-jL	.
8DJ	.	.	.	.	.	8fJ	.
[4E-i	-re-	.	.	.	.	[4g	-re-
.	.	8B-y	.	8d	.	.	.
=47	=47	=47	=47	=47	=47	=47	=47
8E-L]	.	8GL	.	8B-yL	.	8gL]	.
8D	.	8AJ	.	8cJ	.	8f	.
8BB-y	.	4.B-y	-re	4.d	-re	8d	.
8CJ	.	.	.	.	.	8eJ	.
4.D	-re	.	.	.	.	4.f	-re
.	.	8AL	.	8cL	.	.	.
.	.	8F	.	8A	.	.	.
8C	.	8GJ	.	8B-yJ	.	8e	.
=48	=48	=48	=48	=48	=48	=48	=48
4AA	.	2.A	no-	1c	no-	4c	.
*	*	*	*	*	*	*	*Xedit
4.FF	no-	.	.	.	.	2f	no-
8GGL	.	.	.	.	.	.	.
8AA	.	4F	.	.	.	8eL	.
8FFJ	.	.	.	.	.	8dJ	.
=49	=49	=49	=49	=49	=49	=49	=49
1Cl	-bis.	1Gl	-bis.	1cl	-bis.	1el	-bis.
!!LO:LB:g=original
=50||	=50||	=50||	=50||	=50||	=50||	=50||	=50||
*>C	*>C	*>C	*>C	*>C	*>C	*>C	*>C
*M2/2	*	*M2/2	*	*M2/2	*	*M2/2	*
*met(C|)	*	*met(C|)	*	*met(C|)	*	*met(C|)	*
!!section: Agnus III
*	*	*	*Xedit	*	*	*	*
1r	.	2F	A-	1r	.	2r	.
.	.	4.A	.	.	.	2f	A-
.	.	8B-y	.	.	.	.	.
=51	=51	=51	=51	=51	=51	=51	=51
1r	.	4c	.	1r	.	2a	.
.	.	4F	-gnus	.	.	.	.
.	.	2G	De-	.	.	2b-y	-gnus
=52	=52	=52	=52	=52	=52	=52	=52
*	*	*	*	*	*Xedit	*	*
1r	.	2A	-i,	1F	A-	4.cc	De-
.	.	.	.	.	.	8b-y	.
*	*	*	*edit	*	*	*	*
.	.	8FL	A-	.	.	8aL	.
.	.	8G	.	.	.	8gJ	.
.	.	8A	.	.	.	4f	.
.	.	8B-yJ	.	.	.	.	.
=53	=53	=53	=53	=53	=53	=53	=53
1r	.	4c	.	2A	.	4e	.
.	.	4A	-gnus	.	.	4c	.
.	.	2G	De-	2B-y	-gnus	8dL	.
.	.	.	.	.	.	8e	.
.	.	.	.	.	.	8f	.
.	.	.	.	.	.	8gJ	.
=54	=54	=54	=54	=54	=54	=54	=54
2r	.	2F	-i,	4.c	De-	4.a	.
.	.	.	.	8B-y	.	8g	.
*	*Xedit	*	*	*	*	*	*
2FF	A-	4r	.	8AL	.	4f	.
.	.	.	.	8GJ	.	.	.
.	.	[4A	A-	4F	.	8eL	.
.	.	.	.	.	.	8dJ	.
=55	=55	=55	=55	=55	=55	=55	=55
2AA	.	8AL]	.	4E	.	2c	.
.	.	8B-yJ	.	.	.	.	.
.	.	4c	-gnus	4C	.	.	.
2BB-y	-gnus	2B-y	De-	2D	-i,	2f	.
!!LO:LB:g=original
=56	=56	=56	=56	=56	=56	=56	=56
*	*	*	*	*	*edit	*	*
4.C	De-	2G	-i,	4C	qui	1e	-i,
.	.	.	.	4.c	tol-	.	.
8BB-y	.	.	.	.	.	.	.
4AA	-i,	4.A	qui	.	.	.	.
.	.	.	.	8B-y	.	.	.
*	*edit	*	*	*	*	*	*
[4C	qui	.	.	[4A	.	.	.
.	.	8G	.	.	.	.	.
=57	=57	=57	=57	=57	=57	=57	=57
4C]	.	4E	.	4A]	.	1r	.
8BB-yL	.	4C	.	8GL	.	.	.
8AAJ	.	.	.	8FJ	.	.	.
4BB-y	tol-	4D	tol-	4G	.	.	.
4AA	-lis	4E	.	4A	-lis	.	.
=58	=58	=58	=58	=58	=58	=58	=58
*	*	*	*	*	*	*	*edit
1r	.	4C	-lis,	1r	.	2cc	A-
.	.	2c	A-	.	.	.	.
.	.	.	.	.	.	4a	-gnus
.	.	[4A	-gnus	.	.	[4cc	De-
=59	=59	=59	=59	=59	=59	=59	=59
1r	.	4A]	.	1r	.	4cc]	.
.	.	8GL	.	.	.	8b-yL	.
.	.	8FJ	.	.	.	8aJ	.
.	.	4G	De-	.	.	4b-y	.
.	.	4A	-i,	.	.	[4a	-i,
=60	=60	=60	=60	=60	=60	=60	=60
1r	.	2c	qui	1r	.	4a]	.
*	*	*	*	*	*	*	*Xedit
.	.	.	.	.	.	4.cc	qui
.	.	4A	.	.	.	.	.
.	.	.	.	.	.	8b-y	.
.	.	[4c	tol-	.	.	[4a	.
=61	=61	=61	=61	=61	=61	=61	=61
1r	.	4c]	.	1r	.	4a]	.
.	.	8B-yL	.	.	.	8gL	.
.	.	8AJ	.	.	.	8fJ	.
.	.	4B-y	.	.	.	4g	tol-
.	.	4A	-lis,	.	.	4a	-lis
!!LO:PB:g=original
=62	=62	=62	=62	=62	=62	=62	=62
2AA	pec-	1r	.	2c	pec-	1r	.
8GGL	-ca-	.	.	8B-yL	-ca-	.	.
8AA	.	.	.	8c	.	.	.
8BB-y	.	.	.	8d	.	.	.
8CJ	.	.	.	8eJ	.	.	.
=63	=63	=63	=63	=63	=63	=63	=63
4D	.	1r	.	4f	.	1r	.
2C	.	.	.	4.e	-ta	.	.
.	.	.	.	8c	.	.	.
4BBni	.	.	.	4d	mun-	.	.
=64	=64	=64	=64	=64	=64	=64	=64
*	*	*	*	*	*	*	*edit
8CL	-ta	2c	pec-	2G	-di,	2e	pec-
8D	.	.	.	.	.	.	.
8E	.	.	.	.	.	.	.
8FJ	.	.	.	.	.	.	.
4G	.	4B-y	.	2r	.	8dL	-ca-
.	.	.	.	.	.	8e	.
4F	.	[4d	-ca-	.	.	8f	.
.	.	.	.	.	.	8gJ	.
=65	=65	=65	=65	=65	=65	=65	=65
4D	mun-	4d]	.	4r	.	4a	.
4G	.	4B-y	-ta	2.d	pec-	2g	.
2D	-di,	2A	mun-	.	.	.	.
.	.	.	.	.	.	4f#i	.
=66	=66	=66	=66	=66	=66	=66	=66
4.GG	pec-	4.G	-di,	8eL	.	8gL	-ta
.	.	.	.	8dJ	.	8a	.
.	.	.	.	2g	-ca-	8b-y	.
8AA	.	8F	.	.	.	8ccJ	.
4BB-y	.	4D	.	.	.	4dd	.
4C	.	8EL	.	4e	-ta	[4cc	mun-
.	.	8FJ	.	.	.	.	.
!!LO:LB:g=original
=67	=67	=67	=67	=67	=67	=67	=67
2GG	-ca-	2G	.	2d	mun-	4cc]	.
.	.	.	.	.	.	4bni	.
4AA	-ta	8CL	mun-	2c	-di:	2cc	-di:
.	.	8D	.	.	.	.	.
[4C	mun-	8E	.	.	.	.	.
.	.	8FJ	.	.	.	.	.
=68	=68	=68	=68	=68	=68	=68	=68
4C]	.	4G	.	1r	.	1r	.
4AA	.	2F	.	.	.	.	.
2GG	.	.	.	.	.	.	.
.	.	4E	.	.	.	.	.
=69	=69	=69	=69	=69	=69	=69	=69
*	*	*	*	*	*Xedit	*	*Xedit
2FF	-di:	4.F	-di:	4.c	do-	4.a	do-
.	.	8G	.	8B-y	.	8b-y	.
4F	do-	4A	.	4c	.	4a	.
8GL	.	4B-y	do-	8dL	.	4g	.
8EJ	.	.	.	8eJ	.	.	.
=70	=70	=70	=70	=70	=70	=70	=70
4F	.	4A	.	4c	-na	4a	-na
4G	-na	4G	.	4B-y	.	8r	.
.	.	.	.	.	.	8b-y	no-
4D	no-	4A	-na	[2d	no-	4a	.
4GG	.	8r	.	.	.	4g	.
.	.	8B-y	no-	.	.	.	.
=71	=71	=71	=71	=71	=71	=71	=71
4D	-bis	4A	.	4d]	.	4a	-bis
8r	.	4G	.	4d	-bis	8r	.
8G	pa-	.	.	.	.	8b-y	pa-
*	*	*	*	*	*edit	*	*
4F	.	4A	.	4f	pa-	4a	.
4G	.	8B-yL	.	4d	.	4g	.
.	.	8cJ	.	.	.	.	.
!!LO:LB:g=original
=72	=72	=72	=72	=72	=72	=72	=72
4D	.	4d	.	4f	.	8b-yL	.
.	.	.	.	.	.	8a	.
4G	.	4B-y	.	4d	.	8b-y	.
.	.	.	.	.	.	8aJ	.
2C	-cem,	2c	-bis	2e	.	8gL	.
.	.	.	.	.	.	8f	.
.	.	.	.	.	.	8e	.
.	.	.	.	.	.	8dJ	.
=73	=73	=73	=73	=73	=73	=73	=73
2C	do-	4G	pa-	2c	-cem,	2e	-cem,
.	.	4c	.	.	.	.	.
*	*	*	*	*	*	*	*edit
4F	.	4A	.	2r	.	8cL	pa-
.	.	.	.	.	.	8d	.
4E	.	[4c	-cem,	.	.	8e	.
.	.	.	.	.	.	8fJ	.
=74	=74	=74	=74	=74	=74	=74	=74
*	*	*	*	*	*Xedit	*	*
4C	-na	4c]	.	4e-i	pa-	8gL	.
.	.	.	.	.	.	8a	.
4BB-y	.	4d	pa-	4f	.	8b-y	.
.	.	.	.	.	.	8ccJ	.
4C	.	4c	.	4e-i	-cem,	4a	.
*	*	*	*	*	*edit	*	*
[4E-i	no-	4B-y	.	[4e-i	pa-	[4g	.
=75	=75	=75	=75	=75	=75	=75	=75
4E-]	.	4c	.	8e-L]	.	4g]	.
.	.	.	.	8dJ	.	.	.
4F	-bis	4A	.	2.c	.	2f	.
2C	pa-	2G	.	.	.	.	.
.	.	.	.	.	.	4e	.
=76	=76	=76	=76	=76	=76	=76	=76
1FFl	-cem.	1Fl	-cem.	1cl	-cem.	1fl	-cem.
==	==	==	==	==	==	==	==
*-	*-	*-	*-	*-	*-	*-	*-
!!!system-decoration: [*]
!!!RDF**kern: j = editorial accidental, optional, paren up
!!!RDF**kern: i = editorial accidental
!!!RDF**kern: l = terminal breve
!!!PTL: Gaspar van Weerbeke: Collected Works. Collected Works. II. Masses, Part 2
!!!ISBN: 978-1-59551-518-6
!!!PPR: American Institute of Musicology
!!!PC#: Corpus Mensurabilis Musicae 106/II.2
!!!PDT: 2018
!!!PED: Kolb, Paul
!!!YEC: Copyright 2016, Kolb, Paul
!!!YEM: CC-BY-NC 4.0 (https://creativecommons.org/licenses/by-nc/4.0/legalcode)
!!!EED: Zybina, Karina
!!!EEV: 2021/11/08
!!!title: @{OPR} &mdash; @{OTL}
!!!muse2ps: C^@{COM}^i2I150v90,90,90,120c122z18l2700t130
